X: 5
T: Quinn's
Z: Michael Eskin
S: https://thesession.org/tunes/154#setting53853
R: reel
M: 4/4
L: 1/8
K: Dmaj
|:D2FA BAFA|dfed BE~E2|D2FA BAFA| dBAG FGFE |
D2FA BAFA|dfed BE~E2|D2FA BAFA|1 dBAG FDEF:|2dBAG FABc||
|:d2fd Adfa|g2fg eBBA|d2fd Adfa|afeg fece|
d2fd Adfa|g2fg edBd|~f2fe ~d2dB|1 ABde fddc:|2 ABAG FDEF||

%-------------------- TUNE SEPARATOR --------------------%

